Yaru++/actions/scalable/document-new.svg

<svg height="256" width="256" xmlns="http://www.w3.org/2000/svg" xmlns:xlink="http://www.w3.org/1999/xlink">
  <linearGradient id="linearGradient4226" gradientTransform="matrix(0 -.453125 -.45311204 0 253.29054 239.17477)" gradientUnits="userSpaceOnUse" x1="494.345" x2="4.414" y1="386.295" y2="169.657">
    <stop offset="0" stop-color="#e8e8e8"/>
    <stop offset="1" stop-color="#f5f5f5"/>
  </linearGradient>
  <linearGradient id="linearGradient4358" gradientUnits="userSpaceOnUse" x1="88" x2="488" y1="88" y2="488">
    <stop offset="0" stop-opacity=".588235"/>
    <stop offset=".88" stop-opacity="0"/>
    <stop offset="1"/>
  </linearGradient>
  <filter id="filter4380" color-interpolation-filters="sRGB" height="1.088" width="1.106" x="-.05" y="-.04">
    <feGaussianBlur stdDeviation="8.48"/>
  </filter>
  <filter id="filter4346" color-interpolation-filters="sRGB" height="1.022" width="1.026" x="-.01" y="-.01">
    <feGaussianBlur stdDeviation="2.12"/>
  </filter>
  <path d="m189.84323 74c-70.59344 0-78.18921 7.250835-77.84323 77.98706v146.01294 146.01294c-.34598 70.73623 7.24979 77.98706 77.84323 77.98706h196.31354c70.59344 0 76.00668-7.27384 77.84323-77.98706v-146.01294-146.01294c0-70.737067-7.24979-77.98706-77.84323-77.98706z" filter="url(#filter4346)" opacity=".1" transform="matrix(.5 0 0 .5 -16.666462 -20.825235)"/>
  <path d="m189.84323 74c-70.59344 0-78.18921 7.250835-77.84323 77.98706v146.01294 146.01294c-.34598 70.73623 7.24979 77.98706 77.84323 77.98706h196.31354c70.59344 0 77.84323-7.24999 77.84323-77.98706v-146.01294-146.01294c0-70.737067-7.24979-77.98706-77.84323-77.98706z" fill="url(#linearGradient4358)" filter="url(#filter4380)" opacity=".3" transform="matrix(.5 0 0 .5 -16.666462 -20.825235)"/>
  <path d="m77.145139 13.174765c-36.098811 0-39.983003 3.690158-39.806081 39.689842v74.310163 74.31016c-.176922 35.99969 3.70727 39.68984 39.806081 39.68984h100.387321c36.09881 0 39.80608-3.68973 39.80608-39.68984v-74.31016-74.310163c0-36.000113-3.70727-39.689842-39.80608-39.689842z" opacity=".1"/>
  <path d="m176.40652 15.174765c35.29673 0 39.09461 3.625418 38.92162 38.99353v73.006475 73.00647c.17299 35.36812-3.62489 38.99353-38.92162 38.99353h-98.156761c-35.296716 0-38.921616-3.625-38.921616-38.99353v-73.00647-73.006475c0-35.368533 3.6249-38.99353 38.921616-38.99353z" fill="url(#linearGradient4226)"/>
  <path d="m215.32768 187.18063-51.99414 51.99414h13.07227c35.29673 0 39.09486-3.62602 38.92187-38.99414z" fill="#fff"/>
  <path d="m78.255419 15.174765c-35.296728 0-39.09487 3.626029-38.92188 38.994141v2c-.17299-35.368112 3.625152-38.994141 38.92188-38.994141h98.156241c35.29673 0 38.92188 3.625608 38.92188 38.994141v-2c0-35.368533-3.62515-38.994141-38.92188-38.994141z" fill="#fff" opacity=".3"/>
  <path d="m78.260819 239.17477c-35.296731 0-39.094875-3.62603-38.921885-38.99414v-2c-.17299 35.36811 3.625154 38.99414 38.921885 38.99414h98.156241c35.29673 0 38.92188-3.62561 38.92188-38.99414v2c0 35.36853-3.62515 38.99414-38.92188 38.99414z" opacity=".2"/>
  <path d="m127.33353 15.174765v224.000005h49.07228c35.29673 0 39.09486-3.62602 38.92187-38.99414v-73.00586-73.005864c.17299-35.368112-3.62514-38.994141-38.92187-38.994141z" fill="#fff" opacity=".2"/>
  <path d="m39.32768 127.17477v73.00586c0 35.36853 3.625159 38.99414 38.921879 38.99414h98.156251c35.29673 0 39.09486-3.62602 38.92187-38.99414v-73.00586z" fill="#fff" opacity=".2"/>
  <g enable-background="new" transform="translate(-15.865997 -27.826004)">
    <path d="m160 171.92689v-7.92689h71.33333v7.92689z" fill="#c8c4b7" fill-opacity=".996078"/>
    <circle cx="199.866" cy="209.826" fill="#76c22b" r="64"/>
    <path d="m196.39979 172.55894v34.66665h-34.66665v6.93334h34.66665v34.66668h6.93334v-34.66668h34.66665v-6.93334h-34.66665v-36.39998z" fill="#fff"/>
    <g transform="translate(15.865997 27.826004)">
      <path d="m184 118a64 64 0 0 0 -64 64 64 64 0 0 0 .04102 1.17188 64 64 0 0 1 63.95898-63.17188 64 64 0 0 1 63.95898 62.82812 64 64 0 0 0 .04102-.82812 64 64 0 0 0 -64-64z" fill="#fff" opacity=".3"/>
      <path d="m247.95898 180.82812a64 64 0 0 1 -63.95898 63.17188 64 64 0 0 1 -63.95898-62.82812 64 64 0 0 0 -.04102.82812 64 64 0 0 0 64 64 64 64 0 0 0 64-64 64 64 0 0 0 -.04102-1.17188z" fill="#020500" opacity=".2"/>
    </g>
  </g>
</svg>

<?xml version="1.0" encoding="UTF-8" standalone="no"?>
<svg
   xmlns:osb="http://www.openswatchbook.org/uri/2009/osb"
   xmlns:dc="http://purl.org/dc/elements/1.1/"
   xmlns:cc="http://creativecommons.org/ns#"
   xmlns:rdf="http://www.w3.org/1999/02/22-rdf-syntax-ns#"
   xmlns:svg="http://www.w3.org/2000/svg"
   xmlns="http://www.w3.org/2000/svg"
   xmlns:xlink="http://www.w3.org/1999/xlink"
   xmlns:sodipodi="http://sodipodi.sourceforge.net/DTD/sodipodi-0.dtd"
   xmlns:inkscape="http://www.inkscape.org/namespaces/inkscape"
   width="256"
   height="256"
   version="1.1"
   id="svg50"
   sodipodi:docname="document-new.svg"
   inkscape:version="0.92.3 (2405546, 2018-03-11)">
  <metadata
     id="metadata54">
    <rdf:RDF>
      <cc:Work
         rdf:about="">
        <dc:format>image/svg+xml</dc:format>
        <dc:type
           rdf:resource="http://purl.org/dc/dcmitype/StillImage" />
      </cc:Work>
    </rdf:RDF>
  </metadata>
  <sodipodi:namedview
     pagecolor="#ffffff"
     bordercolor="#666666"
     borderopacity="1"
     objecttolerance="10"
     gridtolerance="10"
     guidetolerance="10"
     inkscape:pageopacity="0"
     inkscape:pageshadow="2"
     inkscape:window-width="1920"
     inkscape:window-height="1009"
     id="namedview52"
     showgrid="false"
     inkscape:zoom="3.426175"
     inkscape:cx="139.26394"
     inkscape:cy="126.92923"
     inkscape:window-x="0"
     inkscape:window-y="34"
     inkscape:window-maximized="1"
     inkscape:current-layer="g48" />
  <defs
     id="defs22">
    <linearGradient
       id="linearGradient5606"
       osb:paint="solid">
      <stop
         id="stop5608"
         offset="0"
         style="stop-color:#000000" />
    </linearGradient>
    <linearGradient
       id="linearGradient4526"
       osb:paint="solid">
      <stop
         id="stop4528"
         offset="0"
         style="stop-color:#ffffff" />
    </linearGradient>
    <linearGradient
       id="linearGradient3600-4"
       osb:paint="gradient">
      <stop
         id="stop3602-7"
         offset="0"
         style="stop-color:#f4f4f4" />
      <stop
         id="stop3604-6"
         offset="1"
         style="stop-color:#dbdbdb" />
    </linearGradient>
    <linearGradient
       id="linearGradient4226"
       x1="494.345"
       x2="4.414"
       y1="386.295"
       y2="169.657"
       gradientTransform="matrix(0,-0.453125,-0.45311204,0,253.29054,239.17477)"
       gradientUnits="userSpaceOnUse"
       xlink:href="#linearGradient4245" />
    <linearGradient
       id="linearGradient4245">
      <stop
         id="stop4241"
         offset="0"
         style="stop-color:#e8e8e8" />
      <stop
         id="stop4243"
         offset="1"
         style="stop-color:#f5f5f5" />
    </linearGradient>
    <linearGradient
       id="linearGradient4358"
       x1="88"
       x2="488"
       y1="88"
       y2="488"
       gradientUnits="userSpaceOnUse"
       xlink:href="#linearGradient4360" />
    <linearGradient
       id="linearGradient4360">
      <stop
         id="stop4362"
         offset="0"
         style="stop-color:#000000;stop-opacity:0.58823532" />
      <stop
         style="stop-color:#000000;stop-opacity:0"
         id="stop4364"
         offset=".88" />
      <stop
         id="stop4366"
         offset="1"
         style="stop-color:#000000" />
    </linearGradient>
    <filter
       style="color-interpolation-filters:sRGB"
       id="filter4380"
       width="1.106"
       height="1.088"
       x="-.05"
       y="-.04">
      <feGaussianBlur
         id="feGaussianBlur4382"
         stdDeviation="8.48" />
    </filter>
    <filter
       style="color-interpolation-filters:sRGB"
       id="filter4346"
       width="1.026"
       height="1.022"
       x="-.01"
       y="-.01">
      <feGaussianBlur
         id="feGaussianBlur4348"
         stdDeviation="2.12" />
    </filter>
  </defs>
  <path
     style="opacity:0.1;filter:url(#filter4346)"
     d="M 189.84323,74 C 119.24979,74 111.65402,81.250835 112,151.98706 V 298 444.01294 C 111.65402,514.74917 119.24979,522 189.84323,522 H 386.15677 C 456.75021,522 462.16345,514.72616 464,444.01294 V 298 151.98706 C 464,81.249993 456.75021,74 386.15677,74 Z"
     transform="matrix(0.5,0,0,0.5,-16.666462,-20.825235)"
     id="path24" />
  <path
     d="M 189.84323,74 C 119.24979,74 111.65402,81.250835 112,151.98706 V 298 444.01294 C 111.65402,514.74917 119.24979,522 189.84323,522 H 386.15677 C 456.75021,522 464,514.75001 464,444.01294 V 298 151.98706 C 464,81.249993 456.75021,74 386.15677,74 Z"
     transform="matrix(0.5,0,0,0.5,-16.666462,-20.825235)"
     style="opacity:0.3;fill:url(#linearGradient4358);filter:url(#filter4380)"
     id="path26" />
  <path
     style="opacity:0.1"
     d="m 77.145139,13.174765 c -36.098811,0 -39.983003,3.690158 -39.806081,39.689842 v 74.310163 74.31016 c -0.176922,35.99969 3.70727,39.68984 39.806081,39.68984 H 177.53246 c 36.09881,0 39.80608,-3.68973 39.80608,-39.68984 V 127.17477 52.864607 c 0,-36.000113 -3.70727,-39.689842 -39.80608,-39.689842 z"
     id="path28" />
  <path
     style="fill:url(#linearGradient4226)"
     d="m 176.40652,15.174765 c 35.29673,0 39.09461,3.625418 38.92162,38.99353 v 73.006475 73.00647 c 0.17299,35.36812 -3.62489,38.99353 -38.92162,38.99353 H 78.249759 c -35.296716,0 -38.921616,-3.625 -38.921616,-38.99353 V 127.17477 54.168295 c 0,-35.368533 3.6249,-38.99353 38.921616,-38.99353 z"
     id="path30" />
  <path
     style="fill:#ffffff"
     d="m 215.32768,187.18063 -51.99414,51.99414 h 13.07227 c 35.29673,0 39.09486,-3.62602 38.92187,-38.99414 z"
     id="path32" />
  <path
     style="opacity:0.3;fill:#ffffff"
     d="m 78.255419,15.174765 c -35.296728,0 -39.09487,3.626029 -38.92188,38.994141 v 2 c -0.17299,-35.368112 3.625152,-38.994141 38.92188,-38.994141 h 98.156241 c 35.29673,0 38.92188,3.625608 38.92188,38.994141 v -2 c 0,-35.368533 -3.62515,-38.994141 -38.92188,-38.994141 z"
     id="path34" />
  <path
     style="opacity:0.2"
     d="m 78.260819,239.17477 c -35.296731,0 -39.094875,-3.62603 -38.921885,-38.99414 v -2 c -0.17299,35.36811 3.625154,38.99414 38.921885,38.99414 h 98.156241 c 35.29673,0 38.92188,-3.62561 38.92188,-38.99414 v 2 c 0,35.36853 -3.62515,38.99414 -38.92188,38.99414 z"
     id="path36" />
  <path
     style="opacity:0.2;fill:#ffffff"
     d="M 127.33353,15.174765 V 239.17477 h 49.07228 c 35.29673,0 39.09486,-3.62602 38.92187,-38.99414 V 127.17477 54.168906 c 0.17299,-35.368112 -3.62514,-38.994141 -38.92187,-38.994141 z"
     id="path38" />
  <path
     style="opacity:0.2;fill:#ffffff"
     d="m 39.32768,127.17477 v 73.00586 c 0,35.36853 3.625159,38.99414 38.921879,38.99414 h 98.156251 c 35.29673,0 39.09486,-3.62602 38.92187,-38.99414 v -73.00586 z"
     id="path40" />
  <g
     style="enable-background:new"
     transform="translate(-15.865997,-27.826004)"
     id="g48">
    <path
       d="M 160,171.92689 V 164 h 71.33333 v 7.92689 z"
       style="fill:#c8c4b7;fill-opacity:0.99607843"
       id="path42"
       inkscape:connector-curvature="0" />
    <circle
       style="fill:#76c22b"
       cx="199.866"
       cy="209.826"
       r="64"
       id="circle44" />
    <path
       style="font-weight:400;overflow:visible;fill:#ffffff"
       d="m 196.39979,172.55894 v 34.66665 h -34.66665 v 6.93334 h 34.66665 v 34.66668 h 6.93334 v -34.66668 h 34.66665 v -6.93334 h -34.66665 v -36.39998 z"
       font-weight="400"
       overflow="visible"
       id="path46"
       inkscape:connector-curvature="0" />
    <path
       style="fill:#ffffff;fill-opacity:1;opacity:0.3"
       d="M 184 118 A 64 64 0 0 0 120 182 A 64 64 0 0 0 120.04102 183.17188 A 64 64 0 0 1 184 120 A 64 64 0 0 1 247.95898 182.82812 A 64 64 0 0 0 248 182 A 64 64 0 0 0 184 118 z "
       transform="translate(15.865997,27.826004)"
       id="circle864" />
    <path
       style="fill:#020500;fill-opacity:1;opacity:0.2"
       d="M 247.95898 180.82812 A 64 64 0 0 1 184 244 A 64 64 0 0 1 120.04102 181.17188 A 64 64 0 0 0 120 182 A 64 64 0 0 0 184 246 A 64 64 0 0 0 248 182 A 64 64 0 0 0 247.95898 180.82812 z "
       transform="translate(15.865997,27.826004)"
       id="circle869" />
  </g>
</svg>
